X: 24
T: SLIDE: Dan O'Keeffe's
T: Danny Ab's
C: C: Trad.; S: Denis Murphy & Julia Clifford
C: Set Leaders: Tania, Anton, Sophie
Z: Anton Zille ed.; Jeremy at The Session
N: https://thesession.org/members/26966/sets/92423
R: Slide
M: 12/8
L: 1/8
Q: 3/8=130
K: Ador
|:A2e e2d BAB d2B|A2e e2d B2G GFG|
A2e e2d BAB d3|1 BAB d2e B2A A2G:|2 BAB d2e B2A A2e|
|:e2a a2b a2g e2d|efg a2b a2g e2f|
g3 gfe dBA G2A|1 BAB d2e B2A ABd:|2 BAB d2e B2A A2G||

